X:195
T:Drunken Doctor. JJo8.195, The
%%VWML:JohnsonVol8-2184-p98-0
F:http://www.vwml.org/record/JohnsonVol8/2184/p98
Z:Transcribed by Simon Furey and Lewis Jones
Z:vmp.Simon Wilson 2013 www.village-music-project.org.uk
Z:Dance added by John Chambers 2017
N:The 2nd strain has 15 bars.
M:6/8
L:1/8
%Q:3/8=90
K:G
|:\
G3G,2d | gdB ecA | Bdc BAG | FAG FED |\
G3G,2d | gdB ecA | BdB AFD | G3G,3 :|
|:\
d3D2d | fag fed | c3/c//d//e//f// ge^c |\
a3dfa | g3^ceg | f/g/af ed^c | d3D3 |
g3dBG | e3AFD | Bdc BAG | FAG FED |\
G3G,2d | gdB ecA | BAG DEF | G3G,3 :|
W: The 1st Cu. set to the 2d Wo. and hands
W:three round .| the same to the 2d Man ..|
W:lead down two Cu. and cast up one and
W:foot it and turn .| lead thro' the top and
W:cast off and Right and Left.
W:
T:Highland Man Kissd his Mother. JJo8.196
B:J.Johnson Choice Collection Vol 8 1758
Z:vmp.Simon Wilson 2013 www.village-music-project.org.uk
Z:Dance added by John Chambers 2017
M:C|
L:1/8
%Q:1/2=90
K:C
|: cg2e gcge | cg2Te dBGB | cg2e gcge | a^fge dBGB :|
|: ceAe ceAe | ceAe d/c/B/A/ GB | ceAe ceAg | a^fge dBGB :|
W: The 1st Cu. cast off two Cu. .|
W:and lead up to the top and cast
W:off ..| set contrary Corners and
W:not turn but set Partners .| the
W:other Corners the same ..| then
W:turn contrary with Right hands &
W:Partners with the Left .| the
W:other Corners the same ..| the Man
W:heys down and the Wo. heys up
W:untill they come into the 2d Cu.
W:Place and turn ..|
W:
